X: 46
T: Paddy Whack
%R: jig
B: "The Hibernian Muse" p.28 #2
F: http://imslp.org/wiki/The_Hibernian_Muse_%28Various%29
Z: 2015 John Chambers <jc:trillian.mit.edu>
P: No. XLVI.
M: 6/8
L: 1/8
K: G
% - - - - - - - - - - - - - - - - - - - - - - - - - - - - -
V: 1
D |\
GBd gfg | edc BAG | GBd gdg | fdd d2e/f/ |\
geg fdB | cec dBG | GBd cAc | BGG G2 :|
|: c |\
[BG][BG][BG] [cA][cA][cA] | dBG TA2G | Bcd efg | fdd d2e/f/ |\
geg fdB | cec dBG | GBd cAc | BGG G2 :|
% - - - - - - - - - - - - - - - - - - - - - - - - - - - - -
V: 2 clef=bass middle=d
z |\
G3 g3 | c'ba gfe | g3 G3 | ddd d2z |\
e3 d3 | c3 B3 | B3 d3 | GGG G2 :|
|: z |\
g3 f3 | g3 d3 | g3 c3 | ddd d2z |\
e3 d3 | c3 B3 | B3 d3 | GGG G2 :|

%%sep 2 1 500
%%sep 1 1 500

